;FLAVOR:Marlin
;TIME:19368
;Filament used: 8.43434m
;Layer height: 0.2
;MINX:65.835
;MINY:70.502
;MINZ:0.2
;MAXX:169.165
;MAXY:164.497
;MAXZ:21.8
;Generated with Cura_SteamEngine 4.5.0
M140 S80
M105
M190 S80
M104 S240
M105
M109 S240
M82 ;absolute extrusion mode
; Ender 3 Custom Start G-code
G92 E0 ; Reset Extruder
G28 ; Home all axes
G1 Z2.0 F3000 ; Move Z Axis up little to prevent scratching of Heat Bed
G1 X0.1 Y20 Z0.3 F5000.0 ; Move to start position
G1 X0.1 Y200.0 Z0.3 F1500.0 E15 ; Draw the first line
G1 X0.4 Y200.0 Z0.3 F5000.0 ; Move to side a little
G1 X0.4 Y20 Z0.3 F1500.0 E30 ; Draw the second line
G92 E0 ; Reset Extruder
G1 Z2.0 F3000 ; Move Z Axis up little to prevent scratching of Heat Bed
G1 X5 Y20 Z0.3 F5000.0 ; Move over to prevent blob squish
G92 E0
G92 E0
G1 F2700 E-10
;LAYER_COUNT:109
;LAYER:0
M107
;MESH:Ender-3_Display_Cover_factory_srews_without_bell_closed.STL
G0 F6000 X165.314 Y162.473 Z0.2
;TYPE:WALL-INNER
G1 F2700 E0
G1 F900 X165.467 Y162.366 E0.00621
G1 X165.484 Y162.354 E0.0069
G1 X165.501 Y162.338 E0.00768
G1 X165.607 Y162.235 E0.01259
G1 X165.645 Y162.198 E0.01436
G1 X165.716 Y162.128 E0.01767
G1 X165.835 Y162.013 E0.02318
G1 X165.878 Y161.972 E0.02515
G1 X165.973 Y161.88 E0.02955
G1 X166.012 Y161.842 E0.03136
G1 X166.084 Y161.742 E0.03546
G1 X166.128 Y161.681 E0.03796
G1 X166.257 Y161.503 E0.04528
G1 X166.257 Y161.774 E0.04807
G1 X166.245 Y161.858 E0.04892
G1 X166.231 Y161.906 E0.04926
G1 X166.209 Y161.979 E0.05041
G1 X166.164 Y162.076 E0.05275
G1 X166.089 Y162.189 E0.05602
G1 X166.05 Y162.234 E0.05735
G1 X165.924 Y162.341 E0.06161
G1 X165.836 Y162.393 E0.06405
G1 X165.783 Y162.416 E0.06515
G1 X165.621 Y162.461 E0.06922
G1 X165.542 Y162.471 E0.0699
G1 X165.486 Y162.471
G1 X165.314 Y162.473 E0.07069
G0 F6000 X165.484 Y162.873
G1 F900 X164.574 Y162.873 E0.10096
G1 X164.217 Y162.873 E0.11283
G1 X163.788 Y162.873 E0.1271
G1 X163.268 Y162.873 E0.1444
G1 X163.788 Y162.781 E0.1466
G1 X164.217 Y162.639 E0.15306
G1 X164.538 Y162.483 E0.16254
G1 X164.754 Y162.377 E0.17054
G1 X165.228 Y162.045 E0.18979
G1 X165.708 Y161.579 E0.21204
G1 X166.099 Y161.038 E0.23424
G1 X166.264 Y160.712 E0.24639
G1 X166.347 Y160.548 E0.25251
G1 X166.553 Y159.912 E0.27474
G1 X166.645 Y159.251 E0.29694
G1 X166.639 Y158.706 E0.31507
G1 X166.553 Y158.167 E0.33322
G1 X166.348 Y157.531 E0.35545
G1 X166.27 Y157.382 E0.36104
G1 X166.033 Y156.935 E0.37787
G1 X165.619 Y156.403 E0.40029
G1 X165.119 Y155.951 E0.42271
G1 X164.552 Y155.595 E0.44497
G1 X163.991 Y155.361 E0.46519
G1 X163.407 Y155.219 E0.48518
G1 X162.911 Y155.174 E0.50175
G1 X162.717 Y155.174 E0.5082
G1 X162.193 Y155.219 E0.52569
G1 X161.579 Y155.372 E0.54674
G1 X161.056 Y155.592 E0.56561
G1 X160.669 Y155.819 E0.58053
G1 X160.269 Y156.125 E0.59728
G1 X159.847 Y156.556 E0.61734
G1 X159.464 Y157.107 E0.63966
G1 X159.181 Y157.718 E0.66206
G1 X159.006 Y158.371 E0.68454
G1 X158.947 Y159.102 E0.70894
G1 X159.005 Y159.714 E0.72938
G1 X159.179 Y160.364 E0.75176
G1 X159.462 Y160.975 E0.77416
G1 X159.848 Y161.53 E0.79664
G1 X160.373 Y162.046 E0.82113
G1 X160.92 Y162.418 E0.84313
G1 X161.046 Y162.481 E0.84781
G1 X161.272 Y162.593 E0.8562
G1 X161.893 Y162.803 E0.87801
G1 X162.311 Y162.873 E0.8921
G1 X161.893 Y162.873 E0.89329
G1 X161.272 Y162.873 E0.90219
G1 X161.019 Y162.873 E0.90939
G1 X108.1 Y162.872 E2.66948
G1 X108.1 Y151.486 E3.04818
G1 X83.9 Y151.486 E3.85308
G1 X83.9 Y162.872 E4.23178
G1 X76.577 Y162.872 E4.47534
G1 X76.542 Y162.872 E4.47651
G1 X76.021 Y162.872 E4.49384
G1 X75.434 Y162.871 E4.51336
G1 X75.298 Y162.87 E4.51788
G1 X75.434 Y162.859 E4.51795
G1 X76.021 Y162.712 E4.52264
G1 X76.542 Y162.492 E4.53573
G1 X76.572 Y162.475 E4.53685
G1 X76.874 Y162.301 E4.54844
G1 X77.281 Y162.001 E4.56525
G1 X77.751 Y161.529 E4.58741
G1 X78.136 Y160.976 E4.60982
G1 X78.419 Y160.365 E4.63222
G1 X78.593 Y159.714 E4.65463
G1 X78.652 Y159.043 E4.67703
G1 X78.596 Y158.37 E4.69949
G1 X78.421 Y157.719 E4.72191
G1 X78.138 Y157.108 E4.74431
G1 X77.756 Y156.56 E4.76653
G1 X77.38 Y156.166 E4.78464
G1 X76.979 Y155.851 E4.8016
G1 X76.49 Y155.564 E4.82046
G1 X75.954 Y155.349 E4.83967
G1 X75.315 Y155.207 E4.86144
G1 X74.972 Y155.176 E4.8729
G1 X74.719 Y155.174 E4.88131
G1 X74.193 Y155.219 E4.89887
G1 X73.553 Y155.38 E4.92082
G1 X73.106 Y155.566 E4.93692
G1 X72.619 Y155.852 E4.95571
G1 X72.24 Y156.149 E4.97172
G1 X71.807 Y156.606 E4.99266
G1 X71.462 Y157.11 E5.01298
G1 X71.18 Y157.718 E5.03527
G1 X71.006 Y158.371 E5.05774
G1 X70.947 Y159.102 E5.08214
G1 X71.005 Y159.714 E5.10258
G1 X71.179 Y160.364 E5.12496
G1 X71.462 Y160.975 E5.14736
G1 X71.841 Y161.519 E5.16941
G1 X72.128 Y161.83 E5.18349
G1 X72.588 Y162.208 E5.20329
G1 X73.024 Y162.473 E5.22026
G1 X73.052 Y162.49 E5.22135
G1 X73.638 Y162.731 E5.24242
G1 X74.199 Y162.863 E5.26159
G1 X74.287 Y162.87 E5.26453
G1 X74.199 Y162.87 E5.26455
G1 X73.638 Y162.87 E5.26787
G1 X73.052 Y162.87 E5.28041
G1 X73.019 Y162.87 E5.28148
G1 X69.414 Y162.869 E5.40138
G1 X69.242 Y162.845 E5.40716
G1 X69.19 Y162.832 E5.40894
G1 X69.017 Y162.767 E5.41509
G1 X68.852 Y162.674 E5.42139
G1 X68.753 Y162.598 E5.42554
G1 X68.598 Y162.442 E5.43285
G1 X68.578 Y162.414 E5.434
G1 X68.525 Y162.341 E5.437
G1 X68.513 Y162.317 E5.43789
G1 X68.444 Y162.19 E5.4427
G1 X68.404 Y162.09 E5.44628
G1 X68.36 Y161.924 E5.45199
G1 X68.338 Y161.721 E5.45878
G1 X68.337 Y84.221 E8.03644
G1 X68.344 Y74.087 E8.3735
G1 X68.35 Y74.045 E8.37491
G1 X68.408 Y73.821 E8.38261
G1 X68.473 Y73.672 E8.38802
G1 X68.591 Y73.492 E8.39517
G1 X68.657 Y73.413 E8.3986
G1 X68.774 Y73.307 E8.40385
G1 X68.917 Y73.208 E8.40963
G1 X69.052 Y73.14 E8.41466
G1 X69.188 Y73.095 E8.41943
G1 X69.22 Y73.084 E8.42055
G1 X69.248 Y73.08 E8.42149
G1 X69.392 Y73.055 E8.42635
G1 X69.514 Y73.048 E8.43042
G1 X159.795 Y73.048 E11.43318
G1 X165.528 Y73.049 E11.62386
G1 X165.727 Y73.072 E11.63052
G1 X165.891 Y73.119 E11.63619
G1 X166.024 Y73.176 E11.64101
G1 X166.213 Y73.296 E11.64845
G1 X166.24 Y73.321 E11.64968
G1 X166.308 Y73.382 E11.65271
G1 X166.332 Y73.403 E11.65378
G1 X166.426 Y73.512 E11.65856
G1 X166.442 Y73.537 E11.65955
G1 X166.508 Y73.637 E11.66354
G1 X166.595 Y73.83 E11.67058
G1 X166.603 Y73.859 E11.67158
G1 X166.616 Y73.9 E11.67301
G1 X166.629 Y73.941 E11.67444
G1 X166.663 Y74.198 E11.68306
G1 X166.663 Y91.993 E12.27492
G1 X166.663 Y92.056 E12.27702
G1 X166.663 Y92.686 E12.29797
G1 X166.663 Y93.345 E12.31989
G1 X166.663 Y93.895 E12.33819
G1 X166.663 Y94.555 E12.36014
G1 X166.663 Y95.192 E12.38132
G1 X166.663 Y95.363 E12.38701
G1 X166.663 Y151.703 E14.26089
G1 X166.663 Y157.362 E14.44911
G1 X166.663 Y157.531 E14.45415
G1 X166.662 Y158.167 E14.46527
G1 X166.661 Y158.706 E14.46817
G1 X166.66 Y159.251 E14.46901
G1 X166.659 Y159.912 E14.47247
G1 X166.658 Y160.548 E14.48403
G1 X166.658 Y160.732 E14.4895
G1 X166.657 Y161.806 E14.52522
G1 X166.637 Y161.941 E14.52976
G1 X166.585 Y162.12 E14.53596
G1 X166.514 Y162.273 E14.54157
G1 X166.408 Y162.431 E14.5479
G1 X166.331 Y162.52 E14.55181
G1 X166.156 Y162.669 E14.55946
G1 X166.02 Y162.749 E14.5647
G1 X165.939 Y162.783 E14.56763
G1 X165.914 Y162.794 E14.56853
G1 X165.891 Y162.8 E14.56933
G1 X165.703 Y162.853 E14.57582
G1 X165.675 Y162.856 E14.57676
G1 X165.57 Y162.871 E14.58029
G1 X165.484 Y162.873 E14.58315
G1 F2700 E4.58315
G0 F6000 X161.958 Y162.549
G0 X161.445 Y162.348
G0 X160.487 Y161.878
G0 X160.628 Y161.736
;TYPE:WALL-OUTER
G1 F2700 E14.58315
G1 F900 X161.122 Y162.072 E14.60302
G1 X161.426 Y162.223 E14.61431
G1 X161.991 Y162.414 E14.63414
G1 X162.47 Y162.494 E14.6503
G1 X163.098 Y162.497 E14.67118
G1 X163.69 Y162.392 E14.69118
G1 X164.066 Y162.268 E14.70435
G1 X164.55 Y162.031 E14.72227
G1 X164.973 Y161.736 E14.73943
G1 X165.404 Y161.317 E14.75942
G1 X165.756 Y160.829 E14.77943
G1 X165.976 Y160.395 E14.79562
G1 X166.162 Y159.822 E14.81565
G1 X166.245 Y159.226 E14.83567
G1 X166.239 Y158.74 E14.85183
G1 X166.163 Y158.26 E14.868
G1 X165.978 Y157.687 E14.88802
G1 X165.696 Y157.153 E14.90811
G1 X165.325 Y156.676 E14.92821
G1 X164.877 Y156.271 E14.94829
G1 X164.367 Y155.951 E14.96832
G1 X163.866 Y155.742 E14.98637
G1 X163.341 Y155.615 E15.00434
G1 X162.893 Y155.574 E15.0193
G1 X162.734 Y155.574 E15.02459
G1 X162.259 Y155.615 E15.04045
G1 X161.705 Y155.753 E15.05944
G1 X161.235 Y155.95 E15.07639
G1 X160.893 Y156.151 E15.08958
G1 X160.535 Y156.425 E15.10458
G1 X160.156 Y156.812 E15.12259
G1 X159.812 Y157.307 E15.14264
G1 X159.558 Y157.855 E15.16273
G1 X159.402 Y158.439 E15.18284
G1 X159.349 Y159.099 E15.20486
G1 X159.4 Y159.643 E15.22303
G1 X159.556 Y160.227 E15.24314
G1 X159.81 Y160.775 E15.26322
G1 X160.155 Y161.271 E15.28332
G1 X160.628 Y161.736 E15.30538
G0 F6000 X160.349 Y162.076
G1 F2700 E5.30538
G0 F6000 X159.425 Y160.274
G0 X159.262 Y159.668
G0 X159.209 Y159.1
G0 X159.264 Y158.416
G0 X159.427 Y157.808
G0 X160.62 Y154.723
G0 X165.67 Y155.128
G0 X165.671 Y97.58
G0 X161.83 Y97.429
;TYPE:WALL-INNER
G1 F2700 E15.30538
G1 F900 X162.429 Y97.536 E15.32562
G1 X163.064 Y97.543 E15.34674
G1 X163.572 Y97.474 E15.36379
G1 X164.182 Y97.295 E15.38494
G1 X164.755 Y97.017 E15.40612
G1 X165.298 Y96.628 E15.42834
G1 X165.709 Y96.219 E15.44762
G1 X166.098 Y95.681 E15.4697
G1 X166.269 Y95.344 E15.48227
G1 X166.346 Y95.192 E15.48737
G1 X166.553 Y94.555 E15.49966
G1 X166.645 Y93.895 E15.50334
G1 X166.639 Y93.345 E15.50431
G1 X166.523 Y92.686 E15.50908
G1 X166.297 Y92.056 E15.52355
G1 X166.267 Y92.001 E15.52555
G1 X166.029 Y91.572 E15.54186
G1 X165.579 Y91.001 E15.56604
G1 X165.119 Y90.593 E15.58649
G1 X164.585 Y90.253 E15.60755
G1 X164.059 Y90.026 E15.6266
G1 X163.608 Y89.9 E15.64218
G1 X163.209 Y89.836 E15.65562
G1 X162.973 Y89.819 E15.66349
G1 X162.782 Y89.815 E15.66984
G1 X162.169 Y89.867 E15.6903
G1 X161.7 Y89.975 E15.70631
G1 X161.168 Y90.178 E15.72525
G1 X160.596 Y90.509 E15.74723
G1 X160.217 Y90.812 E15.76337
G1 X159.807 Y91.248 E15.78328
G1 X159.464 Y91.75 E15.8035
G1 X159.182 Y92.357 E15.82576
G1 X159.006 Y93.011 E15.84829
G1 X158.947 Y93.742 E15.87268
G1 X159.005 Y94.352 E15.89306
G1 X159.156 Y94.943 E15.91335
G1 X159.425 Y95.552 E15.93549
G1 X159.721 Y96.009 E15.9536
G1 X160.069 Y96.412 E15.97131
G1 X160.35 Y96.67 E15.984
G1 X160.706 Y96.931 E15.99868
G1 X161.202 Y97.206 E16.01754
G1 X161.83 Y97.429 E16.03971
G0 F6000 X161.933 Y97.041
;TYPE:WALL-OUTER
G1 F900 X162.467 Y97.136 E16.05775
G1 X163.039 Y97.143 E16.07677
G1 X163.488 Y97.082 E16.09184
G1 X164.037 Y96.921 E16.11087
G1 X164.55 Y96.672 E16.12984
G1 X165.039 Y96.322 E16.14984
G1 X165.404 Y95.959 E16.16696
G1 X165.755 Y95.472 E16.18693
G1 X165.975 Y95.039 E16.20308
G1 X166.162 Y94.465 E16.22316
G1 X166.245 Y93.87 E16.24314
G1 X166.239 Y93.382 E16.25937
G1 X166.135 Y92.789 E16.2794
G1 X165.931 Y92.221 E16.29947
G1 X165.695 Y91.794 E16.3157
G1 X165.287 Y91.277 E16.3376
G1 X164.877 Y90.913 E16.35584
G1 X164.397 Y90.608 E16.37475
G1 X163.925 Y90.404 E16.39186
G1 X163.522 Y90.291 E16.40578
G1 X163.163 Y90.234 E16.41787
G1 X162.954 Y90.219 E16.42484
G1 X162.794 Y90.215 E16.43016
G1 X162.231 Y90.263 E16.44895
G1 X161.817 Y90.359 E16.46309
G1 X161.34 Y90.54 E16.48006
G1 X160.823 Y90.84 E16.49994
G1 X160.489 Y91.107 E16.51416
G1 X160.12 Y91.499 E16.53207
G1 X159.813 Y91.949 E16.55018
G1 X159.559 Y92.494 E16.57018
G1 X159.402 Y93.079 E16.59033
G1 X159.349 Y93.739 E16.61235
G1 X159.4 Y94.283 E16.63052
G1 X159.535 Y94.812 E16.64868
G1 X159.778 Y95.361 E16.66865
G1 X160.042 Y95.769 E16.68481
G1 X160.356 Y96.133 E16.7008
G1 X160.604 Y96.36 E16.71198
G1 X160.922 Y96.593 E16.7251
G1 X161.367 Y96.84 E16.74202
G1 X161.933 Y97.041 E16.762
G0 F6000 X161.821 Y97.466
G1 F2700 E6.762
G0 F6000 X158.911 Y96.617
G0 X160.737 Y95.252
G0 X76.542 Y95.603
G0 X78.08 Y97.263
G0 X76.019 Y98.191
;TYPE:WALL-INNER
G1 F2700 E16.762
G1 F900 X76.759 Y97.922 E16.78819
G1 X77.347 Y97.593 E16.8106
G1 X77.95 Y97.122 E16.83605
G1 X78.517 Y96.499 E16.86407
G1 X78.944 Y95.809 E16.89106
G1 X79.226 Y95.128 E16.91557
G1 X79.398 Y94.412 E16.94006
G1 X79.454 Y93.615 E16.96664
G1 X79.385 Y92.878 E16.99126
G1 X79.205 Y92.167 E17.01565
G1 X78.914 Y91.496 E17.03998
G1 X78.529 Y90.885 E17.064
G1 X78.143 Y90.433 E17.08377
G1 X77.603 Y89.953 E17.1078
G1 X76.964 Y89.546 E17.13299
G1 X76.355 Y89.28 E17.1551
G1 X75.689 Y89.097 E17.17807
G1 X75.064 Y89.025 E17.19899
G1 X75.046 Y89.022 E17.1996
G1 X74.781 Y89.015 E17.20842
G1 X74.304 Y89.04 E17.2243
G1 X73.71 Y89.141 E17.24435
G1 X73.114 Y89.327 E17.26511
G1 X72.416 Y89.671 E17.29099
G1 X71.921 Y90.013 E17.311
G1 X71.393 Y90.501 E17.33492
G1 X70.896 Y91.139 E17.36182
G1 X70.512 Y91.863 E17.38907
G1 X70.25 Y92.697 E17.41815
G1 X70.155 Y93.426 E17.4426
G1 X70.161 Y94.085 E17.46452
G1 X70.267 Y94.742 E17.48665
G1 X70.511 Y95.505 E17.5133
G1 X70.892 Y96.225 E17.54039
G1 X71.378 Y96.849 E17.5667
G1 X71.788 Y97.246 E17.58568
G1 X72.433 Y97.709 E17.61209
G1 X73.156 Y98.056 E17.63876
G1 X73.84 Y98.256 E17.66246
G1 X74.632 Y98.353 E17.689
G1 X75.364 Y98.32 E17.71337
G1 X76.019 Y98.191 E17.73558
G0 F6000 X75.911 Y97.805
G1 F900 X76.592 Y97.557 E17.75968
G1 X77.125 Y97.259 E17.77999
G1 X77.677 Y96.828 E17.80329
G1 X78.196 Y96.257 E17.82895
G1 X78.587 Y95.626 E17.85364
G1 X78.844 Y95.004 E17.87602
G1 X79.001 Y94.351 E17.89836
G1 X79.053 Y93.619 E17.92277
G1 X78.99 Y92.946 E17.94525
G1 X78.825 Y92.297 E17.96752
G1 X78.559 Y91.683 E17.98978
G1 X78.206 Y91.123 E18.0118
G1 X77.857 Y90.714 E18.02968
G1 X77.361 Y90.273 E18.05175
G1 X76.775 Y89.9 E18.07486
G1 X76.221 Y89.658 E18.09497
G1 X75.612 Y89.491 E18.11597
G1 X75.035 Y89.424 E18.13529
G1 X75.017 Y89.421 E18.1359
G1 X74.786 Y89.415 E18.14358
G1 X74.348 Y89.438 E18.15817
G1 X73.804 Y89.531 E18.17653
G1 X73.263 Y89.7 E18.19538
G1 X72.619 Y90.017 E18.21925
G1 X72.172 Y90.326 E18.23732
G1 X71.688 Y90.773 E18.25924
G1 X71.233 Y91.357 E18.28386
G1 X70.883 Y92.018 E18.30874
G1 X70.642 Y92.784 E18.33545
G1 X70.555 Y93.45 E18.35779
G1 X70.561 Y94.051 E18.37778
G1 X70.657 Y94.649 E18.39792
G1 X70.881 Y95.349 E18.42237
G1 X71.229 Y96.007 E18.44712
G1 X71.676 Y96.581 E18.47132
G1 X72.045 Y96.938 E18.4884
G1 X72.638 Y97.364 E18.51268
G1 X73.3 Y97.681 E18.53709
G1 X73.921 Y97.863 E18.55862
G1 X74.647 Y97.952 E18.58295
G1 X75.316 Y97.922 E18.60522
G1 X75.911 Y97.805 E18.62539
G0 F6000 X75.803 Y97.419
G1 F900 X76.425 Y97.192 E18.64741
G1 X76.903 Y96.925 E18.66562
G1 X77.404 Y96.534 E18.68676
G1 X77.875 Y96.015 E18.71007
G1 X78.23 Y95.443 E18.73246
G1 X78.462 Y94.88 E18.75271
G1 X78.604 Y94.289 E18.77293
G1 X78.652 Y93.623 E18.79514
G1 X78.595 Y93.015 E18.81545
G1 X78.445 Y92.427 E18.83563
G1 X78.204 Y91.87 E18.85582
G1 X77.883 Y91.361 E18.87583
G1 X77.571 Y90.995 E18.89183
G1 X77.119 Y90.593 E18.91195
G1 X76.586 Y90.254 E18.93296
G1 X76.087 Y90.036 E18.95107
G1 X75.535 Y89.885 E18.9701
G1 X74.988 Y89.82 E18.98842
G1 X74.791 Y89.815 E18.99498
G1 X74.393 Y89.836 E19.00823
G1 X73.898 Y89.921 E19.02494
G1 X73.412 Y90.073 E19.04188
G1 X72.822 Y90.363 E19.06374
G1 X72.423 Y90.639 E19.07988
G1 X71.983 Y91.045 E19.09979
G1 X71.57 Y91.575 E19.12214
G1 X71.254 Y92.173 E19.14463
G1 X71.034 Y92.871 E19.16898
G1 X70.955 Y93.474 E19.1892
G1 X70.961 Y94.017 E19.20726
G1 X71.047 Y94.556 E19.22542
G1 X71.251 Y95.193 E19.24766
G1 X71.566 Y95.789 E19.27009
G1 X71.974 Y96.313 E19.29217
G1 X72.302 Y96.63 E19.30735
G1 X72.843 Y97.018 E19.32949
G1 X73.444 Y97.306 E19.35165
G1 X74.002 Y97.47 E19.371
G1 X74.663 Y97.551 E19.39315
G1 X75.268 Y97.524 E19.41329
G1 X75.803 Y97.419 E19.43142
G0 F6000 X75.695 Y97.033
;TYPE:WALL-OUTER
G1 F900 X76.258 Y96.827 E19.45136
G1 X76.681 Y96.591 E19.46747
G1 X77.131 Y96.24 E19.48646
G1 X77.554 Y95.773 E19.50741
G1 X77.873 Y95.26 E19.52751
G1 X78.08 Y94.757 E19.5456
G1 X78.207 Y94.227 E19.56372
G1 X78.251 Y93.627 E19.58373
G1 X78.2 Y93.084 E19.60187
G1 X78.065 Y92.557 E19.61997
G1 X77.849 Y92.057 E19.63808
G1 X77.56 Y91.599 E19.65609
G1 X77.284 Y91.275 E19.67025
G1 X76.877 Y90.913 E19.68837
G1 X76.397 Y90.608 E19.70728
G1 X75.954 Y90.414 E19.72337
G1 X75.458 Y90.279 E19.74046
G1 X74.959 Y90.219 E19.75718
G1 X74.797 Y90.215 E19.76257
G1 X74.438 Y90.234 E19.77453
G1 X73.992 Y90.311 E19.78958
G1 X73.561 Y90.446 E19.8046
G1 X73.025 Y90.709 E19.82446
G1 X72.674 Y90.952 E19.83866
