;FLAVOR:Marlin
;TIME:2967
;Filament used: 1.32832m
;Layer height: 0.2
;MINX:97.7
;MINY:114.75
;MINZ:0.2
;MAXX:137.3
;MAXY:120.874
;MAXZ:42
;Generated with Cura_SteamEngine 4.5.0
M140 S80
M105
M190 S80
M104 S240
M105
M109 S240
M82 ;absolute extrusion mode
; Ender 3 Custom Start G-code
G92 E0 ; Reset Extruder
G28 ; Home all axes
G1 Z2.0 F3000 ; Move Z Axis up little to prevent scratching of Heat Bed
G1 X0.1 Y20 Z0.3 F5000.0 ; Move to start position
G1 X0.1 Y200.0 Z0.3 F1500.0 E15 ; Draw the first line
G1 X0.4 Y200.0 Z0.3 F5000.0 ; Move to side a little
G1 X0.4 Y20 Z0.3 F1500.0 E30 ; Draw the second line
G92 E0 ; Reset Extruder
G1 Z2.0 F3000 ; Move Z Axis up little to prevent scratching of Heat Bed
G1 X5 Y20 Z0.3 F5000.0 ; Move over to prevent blob squish
G92 E0
G92 E0
G1 F2700 E-10
;LAYER_COUNT:210
;LAYER:0
M107
;MESH:Z-SpacerBottom_v2.STL
G0 F6000 X109.1 Y118.85 Z0.2
;TYPE:WALL-INNER
G1 F2700 E0
G1 F900 X105.9 Y118.85 E0.10643
G1 X105.9 Y116.15 E0.19623
G1 X109.1 Y116.15 E0.30267
G1 X109.1 Y118.85 E0.39247
G0 F6000 X109.5 Y119.25
G1 F900 X105.5 Y119.25 E0.52551
G1 X105.5 Y115.75 E0.64192
G1 X109.5 Y115.75 E0.77496
G1 X109.5 Y119.25 E0.89137
G0 F6000 X109.9 Y119.65
G1 F900 X105.1 Y119.65 E1.05102
G1 X105.1 Y115.743 E1.18097
G1 X104.485 Y115.65 E1.20166
G1 X100.377 Y115.65 E1.33829
G1 X100.376 Y115.35 E1.34827
G1 X104.485 Y115.35 E1.45103
G1 X105.1 Y115.35 E1.46878
G1 X109.9 Y115.35 E1.62843
G1 X124.485 Y115.35 E2.11353
G1 X125.1 Y115.35 E2.13399
G1 X129.973 Y115.35 E2.29606
G1 X130.489 Y115.35 E2.31322
G1 X134.623 Y115.35 E2.45072
G1 X134.624 Y115.65 E2.4607
G1 X130.489 Y115.65 E2.56411
G1 X129.982 Y115.748 E2.57917
G1 X129.9 Y115.764 E2.58194
G1 X129.9 Y119.65 E2.71119
G1 X125.1 Y119.65 E2.87084
G1 X125.1 Y115.743 E3.00079
G1 X124.485 Y115.65 E3.01877
G1 X109.9 Y115.65 E3.38351
G1 X109.9 Y119.65 E3.51655
G0 F6000 X110.072 Y115.822
G0 X124.472 Y115.811
G0 X124.93 Y115.889
G0 X125.5 Y119.25
G1 F900 X125.5 Y115.75 E3.63296
G1 X129.5 Y115.75 E3.766
G1 X129.5 Y119.25 E3.88241
G1 X125.5 Y119.25 E4.01545
G0 F6000 X125.9 Y118.85
G1 F900 X125.9 Y116.15 E4.10526
G1 X129.1 Y116.15 E4.21169
G1 X129.1 Y118.85 E4.30149
G1 X125.9 Y118.85 E4.40792
G1 F2700 E-5.59208
G0 F6000 X124.97 Y119.78
G0 X124.7 Y120.05
;TYPE:WALL-OUTER
G1 F2700 E4.40792
G1 F900 X124.7 Y116.087 E4.53973
G1 X124.455 Y116.05 E4.54797
G1 X110.3 Y116.05 E5.01877
G1 X110.3 Y120.05 E5.15181
G1 X104.7 Y120.05 E5.33807
G1 X104.7 Y116.087 E5.46988
G1 X104.455 Y116.05 E5.47812
G1 X99.977 Y116.05 E5.62706
G1 X99.976 Y114.95 E5.66364
G1 X135.023 Y114.95 E6.82931
G1 X135.024 Y116.05 E6.8659
G1 X130.527 Y116.05 E7.01547
G1 X130.3 Y116.094 E7.02316
G1 X130.3 Y120.05 E7.15474
G1 X124.7 Y120.05 E7.34099
G0 F6000 X124.97 Y119.78
G0 X126.01 Y118.46
G0 X126.29 Y118.46
;TYPE:SKIN
G1 F900 X126.29 Y116.54 E7.40485
G1 X128.71 Y116.54 E7.48534
G1 X128.71 Y118.46 E7.5492
G1 X126.29 Y118.46 E7.62969
G0 F6000 X126.785 Y118.3
G1 F900 X126.449 Y117.963 E7.64552
G0 F6000 X126.449 Y117.398
G1 F900 X127.351 Y118.3 E7.68795
G0 F6000 X127.917 Y118.3
G1 F900 X126.449 Y116.832 E7.757
G0 F6000 X126.882 Y116.7
G1 F900 X128.482 Y118.3 E7.83226
G0 F6000 X128.549 Y117.801
G1 F900 X127.448 Y116.7 E7.88404
G0 F6000 X128.013 Y116.7
G1 F900 X128.549 Y117.235 E7.90923
G0 F6000 X128.99 Y117.235
G0 X128.918 Y116.332
G0 X124.472 Y115.811
G0 X110.072 Y115.822
G0 X108.71 Y116.26
G0 X108.71 Y116.54
G1 F900 X108.71 Y118.46 E7.97309
G1 X106.29 Y118.46 E8.05358
G1 X106.29 Y116.54 E8.11744
G1 X108.71 Y116.54 E8.19793
G0 F6000 X108.55 Y117.035
G1 F900 X108.213 Y116.698 E8.21378
G0 F6000 X107.647 Y116.698
G1 F900 X108.55 Y117.601 E8.25626
G0 F6000 X108.55 Y118.166
G1 F900 X107.082 Y116.698 E8.32531
G0 F6000 X106.516 Y116.698
G1 F900 X108.117 Y118.299 E8.40061
G0 F6000 X107.551 Y118.299
G1 F900 X106.449 Y117.197 E8.45245
G0 F6000 X106.449 Y117.763
G1 F900 X106.985 Y118.299 E8.47766
G0 F6000 X106.985 Y118.74
G0 X108.918 Y118.668
G0 X110.072 Y115.822
G0 X129.667 Y115.525
;TYPE:SKIN
G1 F900 X129.754 Y115.612 E8.47971
;MESH:NONMESH
G0 F300 X129.754 Y115.612 Z0.4
G0 F6000 X110.072 Y115.822
G0 X109.1 Y118.85
;TIME_ELAPSED:26.397801
;LAYER:1
M140 S80
M106 S42.5
;TYPE:WALL-INNER
;MESH:Z-SpacerBottom_v2.STL
G1 F1200 X105.9 Y118.85 E8.58614
G1 X105.9 Y116.15 E8.67594
G1 X109.1 Y116.15 E8.78237
G1 X109.1 Y118.85 E8.87217
G0 F7500 X109.5 Y119.25
G1 F1200 X105.5 Y119.25 E9.00522
G1 X105.5 Y115.75 E9.12163
G1 X109.5 Y115.75 E9.25467
G1 X109.541 Y115.75 E9.25603
G1 X109.5 Y115.781 E9.25634
G1 X109.5 Y119.25 E9.37172
G0 F7500 X109.9 Y119.65
G1 F1200 X105.1 Y119.65 E9.53137
G1 X105.1 Y115.945 E9.65459
G1 X104.772 Y115.741 E9.66744
G1 X104.626 Y115.65 E9.67316
G1 X99.819 Y115.65 E9.83305
G1 X99.818 Y115.35 E9.84302
G1 X104.626 Y115.35 E9.96326
G1 X104.799 Y115.35 E9.96834
G1 X110.188 Y115.35 E10.14757
G1 X110.335 Y115.35 E10.15246
G1 X124.63 Y115.35 E10.62792
G1 X124.8 Y115.35 E10.63357
G1 X130.172 Y115.35 E10.81225
G1 X130.3 Y115.35 E10.8165
G1 X135.181 Y115.35 E10.97885
G1 X135.182 Y115.65 E10.98882
G1 X130.3 Y115.65 E11.11091
G1 X130.205 Y115.735 E11.11466
G1 X129.9 Y116.011 E11.12834
G1 X129.9 Y119.65 E11.24938
G1 X125.1 Y119.65 E11.40903
G1 X125.1 Y115.948 E11.53215
G1 X124.773 Y115.741 E11.54503
G1 X124.63 Y115.65 E11.54999
G1 X110.335 Y115.65 E11.90748
G1 X110.218 Y115.738 E11.91177
G1 X109.9 Y115.98 E11.92506
G1 X109.9 Y119.65 E12.04713
G0 F7500 X110.065 Y116.063
G0 X110.391 Y115.813
G0 X124.583 Y115.812
G0 X124.899 Y116.016
G0 X125.5 Y119.25
G1 F1200 X125.5 Y115.75 E12.16354
G1 X129.5 Y115.75 E12.29658
G1 X129.592 Y115.75 E12.29964
G1 X129.5 Y115.833 E12.30074
G1 X129.5 Y119.25 E12.41439
G1 X125.5 Y119.25 E12.54743
G0 F7500 X125.9 Y118.85
G1 F1200 X125.9 Y116.15 E12.63723
G1 X129.1 Y116.15 E12.74367
G1 X129.1 Y118.85 E12.83347
G1 X125.9 Y118.85 E12.9399
G1 F2700 E2.9399
G0 F7500 X124.97 Y119.78
G0 X124.7 Y120.05
;TYPE:WALL-OUTER
G1 F2700 E12.9399
G1 F1200 X124.7 Y116.168 E13.06902
G1 X124.514 Y116.05 E13.07634
G1 X110.47 Y116.05 E13.54345
G1 X110.3 Y116.179 E13.55055
G1 X110.3 Y120.05 E13.6793
G1 X104.7 Y120.05 E13.86555
G1 X104.7 Y116.167 E13.9947
G1 X104.512 Y116.05 E14.00207
G1 X99.419 Y116.05 E14.17146
G1 X99.418 Y114.95 E14.20805
G1 X135.581 Y114.95 E15.41083
G1 X135.582 Y116.05 E15.44742
G1 X130.454 Y116.05 E15.61798
G1 X130.3 Y116.189 E15.62488
G1 X130.3 Y120.05 E15.75329
G1 X124.7 Y120.05 E15.93955
G0 F7500 X124.97 Y119.78
G0 X126.01 Y118.46
G0 X126.29 Y118.46
;TYPE:SKIN
G1 F1200 X126.29 Y116.54 E16.00341
G1 X128.71 Y116.54 E16.0839
G1 X128.71 Y118.46 E16.14776
G1 X126.29 Y118.46 E16.22825
G0 F7500 X126.01 Y118.46
G0 X126.01 Y116.794
G0 X126.449 Y116.794
G1 F1200 X126.545 Y116.699 E16.23274
G0 F7500 X127.11 Y116.699
G1 F1200 X126.449 Y117.36 E16.26383
G0 F7500 X126.449 Y117.926
G1 F1200 X127.676 Y116.699 E16.32155
G0 F7500 X128.242 Y116.699
G1 F1200 X126.641 Y118.3 E16.39685
G0 F7500 X127.207 Y118.3
G1 F1200 X128.549 Y116.958 E16.45998
G0 F7500 X128.549 Y117.523
G1 F1200 X127.772 Y118.3 E16.49652
G0 F7500 X128.338 Y118.3
G1 F1200 X128.549 Y118.089 E16.50645
G0 F7500 X128.99 Y118.089
G0 X128.918 Y118.668
G0 X126.082 Y118.668
G0 X124.935 Y116.039
G0 X124.583 Y115.812
G0 X110.391 Y115.813
G0 X110.128 Y116.015
G0 X108.99 Y118.46
G0 X108.71 Y118.46
G1 F1200 X106.29 Y118.46 E16.58694
G1 X106.29 Y116.54 E16.6508
G1 X108.71 Y116.54 E16.73129
G1 X108.71 Y118.46 E16.79515
G0 F7500 X107.974 Y118.299
G1 F1200 X108.55 Y117.724 E16.82222
G0 F7500 X108.55 Y117.158
G1 F1200 X107.408 Y118.299 E16.87591
G0 F7500 X106.843 Y118.299
G1 F1200 X108.444 Y116.698 E16.95122
G0 F7500 X107.878 Y116.698
G1 F1200 X106.449 Y118.127 E17.01843
G0 F7500 X106.449 Y117.561
G1 F1200 X107.312 Y116.698 E17.05902
G0 F7500 X106.746 Y116.698
G1 F1200 X106.449 Y116.995 E17.07299
G0 F7500 X106.01 Y116.995
G0 X105.137 Y115.762
G0 X105.238 Y115.661
;TYPE:SKIN
G1 F1200 X105.027 Y115.589 E17.08083
G0 F7500 X104.962 Y115.654
G0 X109.701 Y115.723
G0 X109.801 Y115.623
G1 F1200 X110.119 Y115.588 E17.08631
G0 F7500 X110.136 Y115.572
G0 X124.855 Y115.56
G0 X124.873 Y115.542
G1 F1200 X125.093 Y115.605 E17.09068
G1 X125.262 Y115.719 E17.09456
G0 F7500 X125.186 Y115.795
G0 X129.761 Y115.745
G1 F1200 X129.982 Y115.524 E17.09976
G0 F7500 X129.982 Y115.55
;MESH:NONMESH
G0 F300 X129.982 Y115.55 Z0.6
G0 F7500 X110.391 Y115.813
G0 X110.098 Y116.038
G0 X109.1 Y118.85
;TIME_ELAPSED:45.296103
;LAYER:2
M106 S85
;TYPE:WALL-INNER
;MESH:Z-SpacerBottom_v2.STL
G1 F1500 X105.9 Y118.85 E17.20619
G1 X105.9 Y116.15 E17.29599
G1 X109.1 Y116.15 E17.40243
G1 X109.1 Y118.85 E17.49223
G0 F9000 X109.5 Y119.25
G1 F1500 X105.5 Y119.25 E17.62527
G1 X105.5 Y115.75 E17.74168
G1 X109.5 Y115.75 E17.87472
G1 X109.5 Y119.25 E17.99113
G0 F9000 X109.9 Y119.65
G1 F1500 X105.1 Y119.65 E18.15078
G1 X105.1 Y115.65 E18.28382
G1 X99.46 Y115.65 E18.47141
G1 X99.459 Y115.35 E18.48138
G1 X105.1 Y115.35 E18.62246
G1 X109.9 Y115.35 E18.78211
G1 X125.1 Y115.35 E19.28766
G1 X129.9 Y115.35 E19.44731
G1 X135.54 Y115.35 E19.6349
G1 X135.541 Y115.65 E19.64487
G1 X129.9 Y115.65 E19.78595
G1 X129.9 Y119.65 E19.91899
G1 X125.1 Y119.65 E20.07863
G1 X125.1 Y115.65 E20.21167
G1 X109.9 Y115.65 E20.59179
G1 X109.9 Y119.65 E20.72483
G0 F9000 X110.072 Y115.822
G0 X124.928 Y115.822
G0 X125.5 Y119.25
G1 F1500 X125.5 Y115.75 E20.84124
G1 X129.5 Y115.75 E20.97428
G1 X129.5 Y119.25 E21.09069
G1 X125.5 Y119.25 E21.22373
G0 F9000 X125.9 Y118.85
G1 F1500 X125.9 Y116.15 E21.31354
G1 X129.1 Y116.15 E21.41997
G1 X129.1 Y118.85 E21.50977
G1 X125.9 Y118.85 E21.6162
G1 F2700 E11.6162
G0 F9000 X124.97 Y119.78
G0 X124.7 Y120.05
;TYPE:WALL-OUTER
G1 F2700 E21.6162
G1 F1500 X124.7 Y116.05 E21.74924
G1 X110.3 Y116.05 E22.22819
G1 X110.3 Y120.05 E22.36123
G1 X104.7 Y120.05 E22.54749
G1 X104.7 Y116.05 E22.68053
G1 X99.06 Y116.05 E22.86811
G1 X99.059 Y114.95 E22.9047
G1 X135.94 Y114.95 E24.13137
G1 X135.941 Y116.05 E24.16795
G1 X130.3 Y116.05 E24.35557
G1 X130.3 Y120.05 E24.48861
G1 X124.7 Y120.05 E24.67487
G0 F9000 X124.97 Y119.78
G0 X126.01 Y118.46
G0 X126.29 Y118.46
;TYPE:SKIN
G1 F1500 X126.29 Y116.54 E24.73873
G1 X128.71 Y116.54 E24.81922
G1 X128.71 Y118.46 E24.88308
G1 X126.29 Y118.46 E24.96357
G0 F9000 X126.785 Y118.3
G1 F1500 X126.449 Y117.963 E24.9794
G0 F9000 X126.449 Y117.398
G1 F1500 X127.351 Y118.3 E25.02182
G0 F9000 X127.917 Y118.3
G1 F1500 X126.449 Y116.832 E25.09087
G0 F9000 X126.882 Y116.7
G1 F1500 X128.482 Y118.3 E25.16613
G0 F9000 X128.549 Y117.801
G1 F1500 X127.448 Y116.7 E25.21792
G0 F9000 X128.013 Y116.7
G1 F1500 X128.549 Y117.235 E25.24311
G0 F9000 X128.99 Y117.235
G0 X128.918 Y116.332
G0 X124.928 Y115.822
G0 X110.072 Y115.822
G0 X108.71 Y116.26
G0 X108.71 Y116.54
G1 F1500 X108.71 Y118.46 E25.30697
G1 X106.29 Y118.46 E25.38746
G1 X106.29 Y116.54 E25.45132
G1 X108.71 Y116.54 E25.53181
G0 F9000 X108.55 Y117.035
G1 F1500 X108.213 Y116.698 E25.54766
G0 F9000 X107.647 Y116.698
G1 F1500 X108.55 Y117.601 E25.59013
G0 F9000 X108.55 Y118.166
G1 F1500 X107.082 Y116.698 E25.65918
G0 F9000 X106.516 Y116.698
G1 F1500 X108.117 Y118.299 E25.73449
G0 F9000 X107.551 Y118.299
G1 F1500 X106.449 Y117.197 E25.78632
G0 F9000 X106.449 Y117.763
G1 F1500 X106.985 Y118.299 E25.81154
G0 F9000 X106.985 Y119.04
;MESH:NONMESH
G0 F300 X106.985 Y119.04 Z0.8
G0 F9000 X109.1 Y118.85
;TIME_ELAPSED:60.539154
;LAYER:3
M106 S127.5
;TYPE:WALL-INNER
;MESH:Z-SpacerBottom_v2.STL
G1 F1500 X105.9 Y118.85 E25.91797
G1 X105.9 Y116.15 E26.00777
G1 X109.1 Y116.15 E26.1142
G1 X109.1 Y118.85 E26.20401
G0 F9000 X109.5 Y119.25
G1 F1500 X105.5 Y119.25 E26.33705
G1 X105.5 Y115.75 E26.45346
G1 X109.5 Y115.75 E26.5865
G1 X109.5 Y119.25 E26.70291
G0 F9000 X109.9 Y119.65
G1 F1500 X105.1 Y119.65 E26.86256
G1 X105.1 Y115.65 E26.9956
G1 X99.175 Y115.65 E27.19266
G1 X99.175 Y115.35 E27.20264
G1 X105.1 Y115.35 E27.35081
G1 X109.9 Y115.35 E27.51046
G1 X125.1 Y115.35 E28.01601
G1 X129.9 Y115.35 E28.17566
G1 X135.825 Y115.35 E28.37273
G1 X135.825 Y115.65 E28.38271
G1 X129.9 Y115.65 E28.53088
G1 X129.9 Y119.65 E28.66392
G1 X125.1 Y119.65 E28.82357
G1 X125.1 Y115.65 E28.95661
G1 X109.9 Y115.65 E29.33672
G1 X109.9 Y119.65 E29.46976
G0 F9000 X110.072 Y115.822
G0 X124.928 Y115.822
G0 X125.5 Y119.25
G1 F1500 X125.5 Y115.75 E29.58617
G1 X129.5 Y115.75 E29.71921
G1 X129.5 Y119.25 E29.83563
G1 X125.5 Y119.25 E29.96867
G0 F9000 X125.9 Y118.85
G1 F1500 X125.9 Y116.15 E30.05847
G1 X129.1 Y116.15 E30.1649
G1 X129.1 Y118.85 E30.2547
G1 X125.9 Y118.85 E30.36114
G1 F2700 E20.36114
G0 F9000 X124.97 Y119.78
G0 X124.7 Y120.05
;TYPE:WALL-OUTER
G1 F2700 E30.36114
G1 F1500 X124.7 Y116.05 E30.49418
G1 X110.3 Y116.05 E30.97312
G1 X110.3 Y120.05 E31.10616
G1 X104.7 Y120.05 E31.29242
G1 X104.7 Y116.05 E31.42546
G1 X98.775 Y116.05 E31.62253
G1 X98.775 Y114.95 E31.65911
G1 X136.225 Y114.95 E32.9047
G1 X136.225 Y116.05 E32.94129
G1 X130.3 Y116.05 E33.13836
G1 X130.3 Y120.05 E33.2714
G1 X124.7 Y120.05 E33.45765
G0 F9000 X124.97 Y119.78
G0 X126.01 Y118.46
G0 X126.29 Y118.46
;TYPE:SKIN
G1 F1500 X126.29 Y116.54 E33.52151
G1 X128.71 Y116.54 E33.602
G1 X128.71 Y118.46 E33.66586
G1 X126.29 Y118.46 E33.74635
G0 F9000 X126.01 Y118.46
G0 X126.01 Y116.794
G0 X126.449 Y116.794
G1 F1500 X126.545 Y116.699 E33.75084
G0 F9000 X127.11 Y116.699
G1 F1500 X126.449 Y117.36 E33.78194
G0 F9000 X126.449 Y117.926
G1 F1500 X127.676 Y116.699 E33.83965
G0 F9000 X128.242 Y116.699
G1 F1500 X126.641 Y118.3 E33.91496
G0 F9000 X127.207 Y118.3
G1 F1500 X128.549 Y116.958 E33.97808
G0 F9000 X128.549 Y117.523
G1 F1500 X127.772 Y118.3 E34.01463
G0 F9000 X128.338 Y118.3
G1 F1500 X128.549 Y118.089 E34.02455
G0 F9000 X128.99 Y118.089
G0 X128.918 Y118.668
G0 X126.082 Y118.668
G0 X124.928 Y115.822
G0 X110.072 Y115.822
G0 X108.99 Y118.46
G0 X108.71 Y118.46
G1 F1500 X106.29 Y118.46 E34.10504
G1 X106.29 Y116.54 E34.1689
G1 X108.71 Y116.54 E34.24939
G1 X108.71 Y118.46 E34.31325
G0 F9000 X107.974 Y118.299
G1 F1500 X108.55 Y117.724 E34.34032
G0 F9000 X108.55 Y117.158
G1 F1500 X107.408 Y118.299 E34.39401
G0 F9000 X106.843 Y118.299
G1 F1500 X108.444 Y116.698 E34.46932
G0 F9000 X107.878 Y116.698
G1 F1500 X106.449 Y118.127 E34.53653
G0 F9000 X106.449 Y117.561
G1 F1500 X107.312 Y116.698 E34.57713
G0 F9000 X106.746 Y116.698
G1 F1500 X106.449 Y116.995 E34.5911
G0 F9000 X105.71 Y116.995
;MESH:NONMESH
G0 F300 X105.71 Y116.995 Z1
G0 F9000 X106.082 Y118.668
G0 X109.1 Y118.85
;TIME_ELAPSED:76.455068
;LAYER:4
;TYPE:WALL-INNER
;MESH:Z-SpacerBottom_v2.STL
G1 F1500 X105.9 Y118.85 E34.69753
G1 X105.9 Y116.15 E34.78733
G1 X109.1 Y116.15 E34.89376
G1 X109.1 Y118.85 E34.98357
G0 F9000 X109.5 Y119.25
G1 F1500 X105.5 Y119.25 E35.11661
G1 X105.5 Y115.75 E35.23302
G1 X109.5 Y115.75 E35.36606
G1 X109.5 Y119.25 E35.48247
G0 F9000 X109.9 Y119.65
G1 F1500 X105.1 Y119.65 E35.64212
G1 X105.1 Y115.65 E35.77516
G1 X98.974 Y115.65 E35.97891
G1 X98.973 Y115.35 E35.98889
G1 X105.1 Y115.35 E36.14211
G1 X109.9 Y115.35 E36.30176
G1 X125.1 Y115.35 E36.80732
G1 X129.9 Y115.35 E36.96696
G1 X136.026 Y115.35 E37.17072
G1 X136.027 Y115.65 E37.18069
G1 X129.9 Y115.65 E37.33392
G1 X129.9 Y119.65 E37.46696
G1 X125.1 Y119.65 E37.62661
G1 X125.1 Y115.65 E37.75965
G1 X109.9 Y115.65 E38.13977
G1 X109.9 Y119.65 E38.27281
G0 F9000 X110.072 Y115.822
G0 X124.928 Y115.822
G0 X125.5 Y119.25
G1 F1500 X125.5 Y115.75 E38.38922
G1 X129.5 Y115.75 E38.52226
G1 X129.5 Y119.25 E38.63867
G1 X125.5 Y119.25 E38.77171
G0 F9000 X125.9 Y118.85
G1 F1500 X125.9 Y116.15 E38.86151
G1 X129.1 Y116.15 E38.96794
G1 X129.1 Y118.85 E39.05775
G1 X125.9 Y118.85 E39.16418
G1 F2700 E29.16418
G0 F9000 X124.97 Y119.78
G0 X124.7 Y120.05
;TYPE:WALL-OUTER
G1 F2700 E39.16418
G1 F1500 X124.7 Y116.05 E39.29722
G1 X110.3 Y116.05 E39.77616
G1 X110.3 Y120.05 E39.90921
G1 X104.7 Y120.05 E40.09546
G1 X104.7 Y116.05 E40.2285
G1 X98.574 Y116.05 E40.43225
G1 X98.573 Y114.95 E40.46884
G1 X136.426 Y114.95 E41.72784
G1 X136.427 Y116.05 E41.76442
G1 X130.3 Y116.05 E41.96821
G1 X130.3 Y120.05 E42.10125
G1 X124.7 Y120.05 E42.2875
G0 F9000 X124.97 Y119.78
G0 X126.163 Y118.77
;TYPE:FILL
G1 F3000 X126.248 Y118.572 E42.29467
G1 X126.527 Y118.09 E42.31319
G1 X126.321 Y117.608 E42.33063
G1 X126.042 Y117.126 E42.34915
G1 X126.248 Y116.644 E42.36659
