;FLAVOR:Marlin
;TIME:2478
;Filament used: 0.823928m
;Layer height: 0.2
;MINX:97.7
;MINY:114.597
;MINZ:0.2
;MAXX:137.3
;MAXY:119.75
;MAXZ:44
;Generated with Cura_SteamEngine 4.5.0
M140 S80
M105
M190 S80
M104 S240
M105
M109 S240
M82 ;absolute extrusion mode
; Ender 3 Custom Start G-code
G92 E0 ; Reset Extruder
G28 ; Home all axes
G1 Z2.0 F3000 ; Move Z Axis up little to prevent scratching of Heat Bed
G1 X0.1 Y20 Z0.3 F5000.0 ; Move to start position
G1 X0.1 Y200.0 Z0.3 F1500.0 E15 ; Draw the first line
G1 X0.4 Y200.0 Z0.3 F5000.0 ; Move to side a little
G1 X0.4 Y20 Z0.3 F1500.0 E30 ; Draw the second line
G92 E0 ; Reset Extruder
G1 Z2.0 F3000 ; Move Z Axis up little to prevent scratching of Heat Bed
G1 X5 Y20 Z0.3 F5000.0 ; Move over to prevent blob squish
G92 E0
G92 E0
G1 F2700 E-10
;LAYER_COUNT:220
;LAYER:0
M107
;MESH:Z-SpacerSide_v2.STL
G0 F6000 X105.1 Y115.85 Z0.2
;TYPE:WALL-INNER
G1 F2700 E0
G1 F900 X109.9 Y115.85 E0.15965
G1 X109.9 Y119.15 E0.26941
G1 X105.1 Y119.15 E0.42906
G1 X105.1 Y115.85 E0.53881
G0 F6000 X105.5 Y116.25
G1 F900 X109.5 Y116.25 E0.67185
G1 X109.5 Y118.75 E0.75501
G1 X105.5 Y118.75 E0.88805
G1 X105.5 Y116.25 E0.9712
G0 F6000 X105.9 Y116.65
G1 F900 X109.1 Y116.65 E1.07763
G1 X109.1 Y118.35 E1.13417
G1 X105.9 Y118.35 E1.2406
G1 X105.9 Y116.65 E1.29715
G1 F2700 E-8.70285
G0 F6000 X110.18 Y115.85
G0 X110.558 Y115.735
G0 X124.445 Y115.711
G0 X125.1 Y115.85
G1 F2700 E1.29715
G1 F900 X129.9 Y115.85 E1.45679
G1 X129.9 Y119.15 E1.56655
G1 X125.1 Y119.15 E1.7262
G1 X125.1 Y115.85 E1.83596
G0 F6000 X125.5 Y116.25
G1 F900 X129.5 Y116.25 E1.969
G1 X129.5 Y118.75 E2.05215
G1 X125.5 Y118.75 E2.18519
G1 X125.5 Y116.25 E2.26834
G0 F6000 X125.9 Y116.65
G1 F900 X129.1 Y116.65 E2.37477
G1 X129.1 Y118.35 E2.43132
G1 X125.9 Y118.35 E2.53775
G1 X125.9 Y116.65 E2.59429
G1 F2700 E-7.40571
G0 F6000 X124.87 Y119.38
G0 X124.7 Y119.55
;TYPE:WALL-OUTER
G1 F2700 E2.59429
G1 F900 X124.7 Y115.609 E2.72537
G1 X124.466 Y115.55 E2.7334
G1 X110.492 Y115.55 E3.19817
G1 X110.3 Y115.635 E3.20516
G1 X110.3 Y119.55 E3.33537
G1 X104.7 Y119.55 E3.52163
G1 X104.7 Y115.612 E3.6526
G1 X104.472 Y115.55 E3.66046
G1 X99.094 Y115.55 E3.83934
G1 X99.093 Y115.45 E3.84266
G1 X135.906 Y115.45 E5.06707
G1 X135.907 Y115.55 E5.07039
G1 X130.3 Y115.55 E5.25688
G1 X130.3 Y119.55 E5.38992
G1 X124.7 Y119.55 E5.57618
G0 F6000 X124.87 Y119.38
G0 X126.01 Y117.96
G0 X126.29 Y117.96
;TYPE:SKIN
G1 F900 X126.29 Y117.04 E5.60678
G1 X128.71 Y117.04 E5.68727
G1 X128.71 Y117.96 E5.71787
G1 X126.29 Y117.96 E5.79836
G0 F6000 X126.85 Y117.799
G1 F900 X126.449 Y117.398 E5.81722
G0 F6000 X126.816 Y117.2
G1 F900 X127.416 Y117.799 E5.84542
G0 F6000 X127.982 Y117.799
G1 F900 X127.382 Y117.2 E5.87362
G0 F6000 X127.948 Y117.2
G1 F900 X128.547 Y117.799 E5.90179
G1 F2700 E-4.09821
G0 F6000 X128.547 Y118.24
G0 X126.329 Y118.176
G0 X124.82 Y117.96
G0 X123.835 Y117.96
G0 X111.165 Y117.96
G0 X110.18 Y117.96
G0 X108.99 Y117.96
G0 X108.71 Y117.96
G1 F2700 E5.90179
G1 F900 X106.29 Y117.96 E5.98228
G1 X106.29 Y117.04 E6.01288
G1 X108.71 Y117.04 E6.09337
G1 X108.71 Y117.96 E6.12397
G0 F6000 X108.55 Y117.601
G1 F900 X108.148 Y117.199 E6.14288
G0 F6000 X107.582 Y117.199
G1 F900 X108.182 Y117.799 E6.1711
G0 F6000 X107.616 Y117.799
G1 F900 X107.017 Y117.199 E6.1993
G0 F6000 X106.451 Y117.199
G1 F900 X107.051 Y117.799 E6.22752
G0 F6000 X107.051 Y118.54
;MESH:NONMESH
G0 F300 X107.051 Y118.54 Z0.4
G0 F6000 X106.082 Y118.168
G0 X105.1 Y115.85
;TIME_ELAPSED:21.224619
;LAYER:1
M140 S80
M106 S42.5
;TYPE:WALL-INNER
;MESH:Z-SpacerSide_v2.STL
G1 F1200 X109.9 Y115.85 E6.38717
G1 X109.9 Y119.15 E6.49693
G1 X105.1 Y119.15 E6.65658
G1 X105.1 Y115.85 E6.76634
G0 F7500 X105.5 Y116.25
G1 F1200 X109.5 Y116.25 E6.89938
G1 X109.5 Y118.75 E6.98253
G1 X105.5 Y118.75 E7.11557
G1 X105.5 Y116.25 E7.19872
G0 F7500 X105.9 Y116.65
G1 F1200 X109.1 Y116.65 E7.30515
G1 X109.1 Y118.35 E7.36169
G1 X105.9 Y118.35 E7.46813
G1 X105.9 Y116.65 E7.52467
G0 F7500 X110.172 Y115.722
G0 X124.828 Y115.722
G0 X125.1 Y115.85
G1 F1200 X129.9 Y115.85 E7.68432
G1 X129.9 Y119.15 E7.79407
G1 X125.1 Y119.15 E7.95372
G1 X125.1 Y115.85 E8.06348
G0 F7500 X125.5 Y116.25
G1 F1200 X129.5 Y116.25 E8.19652
G1 X129.5 Y118.75 E8.27967
G1 X125.5 Y118.75 E8.41271
G1 X125.5 Y116.25 E8.49586
G0 F7500 X125.9 Y116.65
G1 F1200 X129.1 Y116.65 E8.6023
G1 X129.1 Y118.35 E8.65884
G1 X125.9 Y118.35 E8.76527
G1 X125.9 Y116.65 E8.82181
G1 F2700 E-1.17819
G0 F7500 X124.87 Y119.38
G0 X124.7 Y119.55
;TYPE:WALL-OUTER
G1 F2700 E8.82181
G1 F1200 X124.7 Y115.55 E8.95485
G1 X110.3 Y115.55 E9.4338
G1 X110.3 Y119.55 E9.56684
G1 X104.7 Y119.55 E9.7531
G1 X104.7 Y115.718 E9.88055
G1 X104.546 Y115.55 E9.88813
G1 X98.654 Y115.55 E10.0841
G1 X98.653 Y115.45 E10.08742
G1 X136.346 Y115.45 E11.3411
G1 X136.347 Y115.55 E11.34442
G1 X130.3 Y115.55 E11.54555
G1 X130.3 Y119.55 E11.67859
G1 X124.7 Y119.55 E11.86485
G0 F7500 X124.87 Y119.38
G0 X126.01 Y117.96
G0 X126.29 Y117.96
;TYPE:SKIN
G1 F1200 X126.29 Y117.04 E11.89545
G1 X128.71 Y117.04 E11.97594
G1 X128.71 Y117.96 E12.00653
G1 X126.29 Y117.96 E12.08702
G0 F7500 X126.61 Y117.2
G1 F1200 X126.449 Y117.361 E12.0946
G0 F7500 X126.576 Y117.799
G1 F1200 X127.175 Y117.2 E12.12277
G0 F7500 X127.741 Y117.2
G1 F1200 X127.142 Y117.799 E12.15095
G0 F7500 X127.707 Y117.799
G1 F1200 X128.307 Y117.2 E12.17915
G0 F7500 X128.549 Y117.523
G1 F1200 X128.273 Y117.799 E12.19213
G0 F7500 X128.273 Y118.24
G0 X124.84 Y118.19
G0 X124.828 Y115.722
G0 X110.172 Y115.722
G0 X108.99 Y117.96
G0 X108.71 Y117.96
G1 F1200 X106.29 Y117.96 E12.27262
G1 X106.29 Y117.04 E12.30322
G1 X108.71 Y117.04 E12.38371
G1 X108.71 Y117.96 E12.41431
G0 F7500 X108.475 Y117.799
G1 F1200 X108.55 Y117.724 E12.41783
G0 F7500 X108.509 Y117.199
G1 F1200 X107.909 Y117.799 E12.44606
G0 F7500 X107.343 Y117.799
G1 F1200 X107.943 Y117.199 E12.47428
G0 F7500 X107.377 Y117.199
G1 F1200 X106.778 Y117.799 E12.50248
G0 F7500 X106.449 Y117.561
G1 F1200 X106.812 Y117.199 E12.51953
G0 F7500 X106.812 Y116.46
;MESH:NONMESH
G0 F300 X106.812 Y116.46 Z0.6
G0 F7500 X105.1 Y115.85
;TIME_ELAPSED:34.509939
;LAYER:2
M106 S85
;TYPE:WALL-INNER
;MESH:Z-SpacerSide_v2.STL
G1 F1215.5 X109.9 Y115.85 E12.67918
G1 X109.9 Y119.15 E12.78893
G1 X105.1 Y119.15 E12.94858
G1 X105.1 Y115.85 E13.05834
G0 F9000 X105.5 Y116.25
G1 F1215.5 X109.5 Y116.25 E13.19138
G1 X109.5 Y118.75 E13.27453
G1 X105.5 Y118.75 E13.40757
G1 X105.5 Y116.25 E13.49072
G0 F9000 X105.9 Y116.65
G1 F1215.5 X109.1 Y116.65 E13.59716
G1 X109.1 Y118.35 E13.6537
G1 X105.9 Y118.35 E13.76013
G1 X105.9 Y116.65 E13.81667
G0 F9000 X110.172 Y115.722
G0 X124.828 Y115.722
G0 X125.1 Y115.85
G1 F1215.5 X129.9 Y115.85 E13.97632
G1 X129.9 Y119.15 E14.08608
G1 X125.1 Y119.15 E14.24573
G1 X125.1 Y115.85 E14.35549
G0 F9000 X125.5 Y116.25
G1 F1215.5 X129.5 Y116.25 E14.48853
G1 X129.5 Y118.75 E14.57168
G1 X125.5 Y118.75 E14.70472
G1 X125.5 Y116.25 E14.78787
G0 F9000 X125.9 Y116.65
G1 F1215.5 X129.1 Y116.65 E14.8943
G1 X129.1 Y118.35 E14.95084
G1 X125.9 Y118.35 E15.05728
G1 X125.9 Y116.65 E15.11382
G1 F2700 E5.11382
G0 F9000 X124.87 Y119.38
G0 X124.7 Y119.55
;TYPE:WALL-OUTER
G1 F2700 E15.11382
G1 F1215.5 X124.7 Y115.55 E15.24686
G1 X110.3 Y115.55 E15.7258
G1 X110.3 Y119.55 E15.85884
G1 X104.7 Y119.55 E16.0451
G1 X104.7 Y115.55 E16.17814
G1 X98.382 Y115.55 E16.38828
G1 X98.381 Y115.45 E16.39161
G1 X136.618 Y115.45 E17.66337
G1 X136.619 Y115.55 E17.6667
G1 X130.3 Y115.55 E17.87687
G1 X130.3 Y119.55 E18.00991
G1 X124.7 Y119.55 E18.19617
G0 F9000 X124.87 Y119.38
G0 X126.01 Y117.96
G0 X126.29 Y117.96
;TYPE:SKIN
G1 F1215.5 X126.29 Y117.04 E18.22677
G1 X128.71 Y117.04 E18.30726
G1 X128.71 Y117.96 E18.33786
G1 X126.29 Y117.96 E18.41835
G0 F9000 X126.85 Y117.799
G1 F1215.5 X126.449 Y117.398 E18.43721
G0 F9000 X126.816 Y117.2
G1 F1215.5 X127.416 Y117.799 E18.46541
G0 F9000 X127.982 Y117.799
G1 F1215.5 X127.382 Y117.2 E18.4936
G0 F9000 X127.948 Y117.2
G1 F1215.5 X128.547 Y117.799 E18.52178
G0 F9000 X128.547 Y118.24
G0 X124.839 Y118.186
G0 X124.828 Y115.722
G0 X110.172 Y115.722
G0 X108.99 Y117.96
G0 X108.71 Y117.96
G1 F1215.5 X106.29 Y117.96 E18.60227
G1 X106.29 Y117.04 E18.63287
G1 X108.71 Y117.04 E18.71336
G1 X108.71 Y117.96 E18.74396
G0 F9000 X108.55 Y117.601
G1 F1215.5 X108.148 Y117.199 E18.76287
G0 F9000 X107.582 Y117.199
G1 F1215.5 X108.182 Y117.799 E18.79109
G0 F9000 X107.616 Y117.799
G1 F1215.5 X107.017 Y117.199 E18.81929
G0 F9000 X106.451 Y117.199
G1 F1215.5 X107.051 Y117.799 E18.84751
G0 F9000 X107.051 Y118.54
;MESH:NONMESH
G0 F300 X107.051 Y118.54 Z0.8
G0 F9000 X106.082 Y118.168
G0 X105.1 Y115.85
;TIME_ELAPSED:47.740428
;LAYER:3
M106 S127.5
;TYPE:WALL-INNER
;MESH:Z-SpacerSide_v2.STL
G1 F1223 X109.9 Y115.85 E19.00716
G1 X109.9 Y119.15 E19.11692
G1 X105.1 Y119.15 E19.27657
G1 X105.1 Y115.85 E19.38632
G0 F9000 X105.5 Y116.25
G1 F1223 X109.5 Y116.25 E19.51936
G1 X109.5 Y118.75 E19.60251
G1 X105.5 Y118.75 E19.73556
G1 X105.5 Y116.25 E19.81871
G0 F9000 X105.9 Y116.65
G1 F1223 X109.1 Y116.65 E19.92514
G1 X109.1 Y118.35 E19.98168
G1 X105.9 Y118.35 E20.08811
G1 X105.9 Y116.65 E20.14465
G0 F9000 X110.172 Y115.722
G0 X124.828 Y115.722
G0 X125.1 Y115.85
G1 F1223 X129.9 Y115.85 E20.3043
G1 X129.9 Y119.15 E20.41406
G1 X125.1 Y119.15 E20.57371
G1 X125.1 Y115.85 E20.68347
G0 F9000 X125.5 Y116.25
G1 F1223 X129.5 Y116.25 E20.81651
G1 X129.5 Y118.75 E20.89966
G1 X125.5 Y118.75 E21.0327
G1 X125.5 Y116.25 E21.11585
G0 F9000 X125.9 Y116.65
G1 F1223 X129.1 Y116.65 E21.22228
G1 X129.1 Y118.35 E21.27883
G1 X125.9 Y118.35 E21.38526
G1 X125.9 Y116.65 E21.4418
G1 F2700 E11.4418
G0 F9000 X124.87 Y119.38
G0 X124.7 Y119.55
;TYPE:WALL-OUTER
G1 F2700 E21.4418
G1 F1223 X124.7 Y115.55 E21.57484
G1 X110.3 Y115.55 E22.05379
G1 X110.3 Y119.55 E22.18683
G1 X104.7 Y119.55 E22.37308
G1 X104.7 Y115.55 E22.50612
G1 X98.191 Y115.55 E22.72261
G1 X98.188 Y115.45 E22.72594
G1 X136.809 Y115.45 E24.01048
G1 X136.812 Y115.55 E24.01381
G1 X130.3 Y115.55 E24.2304
G1 X130.3 Y119.55 E24.36344
G1 X124.7 Y119.55 E24.5497
G0 F9000 X124.87 Y119.38
G0 X126.01 Y117.96
G0 X126.29 Y117.96
;TYPE:SKIN
G1 F1223 X126.29 Y117.04 E24.5803
G1 X128.71 Y117.04 E24.66079
G1 X128.71 Y117.96 E24.69138
G1 X126.29 Y117.96 E24.77187
G0 F9000 X126.61 Y117.2
G1 F1223 X126.449 Y117.361 E24.77945
G0 F9000 X126.576 Y117.799
G1 F1223 X127.175 Y117.2 E24.80762
G0 F9000 X127.741 Y117.2
G1 F1223 X127.142 Y117.799 E24.8358
G0 F9000 X127.707 Y117.799
G1 F1223 X128.307 Y117.2 E24.864
G0 F9000 X128.549 Y117.523
G1 F1223 X128.273 Y117.799 E24.87698
G0 F9000 X128.273 Y118.24
G0 X124.84 Y118.19
G0 X124.828 Y115.722
G0 X110.172 Y115.722
G0 X108.99 Y117.96
G0 X108.71 Y117.96
G1 F1223 X106.29 Y117.96 E24.95747
G1 X106.29 Y117.04 E24.98807
G1 X108.71 Y117.04 E25.06856
G1 X108.71 Y117.96 E25.09916
G0 F9000 X108.475 Y117.799
G1 F1223 X108.55 Y117.724 E25.10268
G0 F9000 X108.509 Y117.199
G1 F1223 X107.909 Y117.799 E25.13091
G0 F9000 X107.343 Y117.799
G1 F1223 X107.943 Y117.199 E25.15913
G0 F9000 X107.377 Y117.199
G1 F1223 X106.778 Y117.799 E25.18733
G0 F9000 X106.449 Y117.561
G1 F1223 X106.812 Y117.199 E25.20438
G0 F9000 X106.812 Y116.46
;MESH:NONMESH
G0 F300 X106.812 Y116.46 Z1
G0 F9000 X105.1 Y115.85
;TIME_ELAPSED:61.002770
;LAYER:4
;TYPE:WALL-INNER
;MESH:Z-SpacerSide_v2.STL
G1 F1132.8 X109.9 Y115.85 E25.36403
G1 X109.9 Y119.15 E25.47378
G1 X105.1 Y119.15 E25.63343
G1 X105.1 Y115.85 E25.74319
G0 F9000 X105.5 Y116.25
G1 F1132.8 X109.5 Y116.25 E25.87623
G1 X109.5 Y118.75 E25.95938
G1 X105.5 Y118.75 E26.09242
G1 X105.5 Y116.25 E26.17557
G0 F9000 X105.9 Y116.65
G1 F1132.8 X109.1 Y116.65 E26.28201
G1 X109.1 Y118.35 E26.33855
G1 X105.9 Y118.35 E26.44498
G1 X105.9 Y116.65 E26.50152
G0 F9000 X110.172 Y115.722
G0 X124.828 Y115.722
G0 X125.1 Y115.85
G1 F1132.8 X129.9 Y115.85 E26.66117
G1 X129.9 Y119.15 E26.77093
G1 X125.1 Y119.15 E26.93058
G1 X125.1 Y115.85 E27.04034
G0 F9000 X125.5 Y116.25
G1 F1132.8 X129.5 Y116.25 E27.17338
G1 X129.5 Y118.75 E27.25653
G1 X125.5 Y118.75 E27.38957
G1 X125.5 Y116.25 E27.47272
G0 F9000 X125.9 Y116.65
G1 F1132.8 X129.1 Y116.65 E27.57915
G1 X129.1 Y118.35 E27.63569
G1 X125.9 Y118.35 E27.74213
G1 X125.9 Y116.65 E27.79867
G1 F2700 E17.79867
G0 F9000 X124.87 Y119.38
G0 X124.7 Y119.55
;TYPE:WALL-OUTER
G1 F2700 E27.79867
G1 F1132.8 X124.7 Y115.55 E27.93171
G1 X110.3 Y115.55 E28.41065
G1 X110.3 Y119.55 E28.5437
G1 X104.7 Y119.55 E28.72995
G1 X104.7 Y115.55 E28.86299
G1 X98.037 Y115.55 E29.0846
G1 X98.037 Y115.45 E29.08793
G1 X136.963 Y115.45 E30.38261
G1 X136.963 Y115.55 E30.38594
G1 X130.3 Y115.55 E30.60755
G1 X130.3 Y119.55 E30.74059
G1 X124.7 Y119.55 E30.92685
G0 F9000 X124.87 Y119.38
G0 X126.423 Y118.27
;TYPE:FILL
G1 F2265.5 X126.527 Y118.09 E30.93376
G1 X126.321 Y117.608 E30.9512
G1 X126.042 Y117.126 E30.96972
G1 X126.211 Y116.73 E30.98404
G0 F9000 X127.235 Y116.73
G1 F2265.5 X127.006 Y117.126 E30.99926
G1 X127.212 Y117.608 E31.01669
G1 X127.491 Y118.09 E31.03521
G1 X127.414 Y118.27 E31.04173
G0 F9000 X128.351 Y118.27
G1 F2265.5 X128.455 Y118.09 E31.04864
G1 X128.249 Y117.608 E31.06607
G1 X127.97 Y117.126 E31.0846
G1 X128.139 Y116.73 E31.09892
G0 F9000 X129.02 Y116.977
G1 F2265.5 X128.934 Y117.126 E31.10464
G1 X129.02 Y117.327 E31.11191
G0 F9000 X124.828 Y115.722
G0 X110.172 Y115.722
G0 X109.02 Y117.727
G1 F2265.5 X108.969 Y117.608 E31.11622
G1 X108.69 Y117.126 E31.13474
G1 X108.859 Y116.73 E31.14906
G0 F9000 X107.955 Y116.73
G1 F2265.5 X107.726 Y117.126 E31.16428
G1 X107.932 Y117.608 E31.18171
G1 X108.211 Y118.09 E31.20023
G1 X108.134 Y118.27 E31.20675
G0 F9000 X107.143 Y118.27
G1 F2265.5 X107.247 Y118.09 E31.21366
G1 X107.041 Y117.608 E31.23109
G1 X106.762 Y117.126 E31.24962
G1 X106.931 Y116.73 E31.26394
G0 F9000 X105.98 Y117.552
G1 F2265.5 X106.004 Y117.608 E31.26596
G1 X106.283 Y118.09 E31.28449
G1 X106.206 Y118.27 E31.291
;MESH:NONMESH
G0 F300 X106.206 Y118.27 Z1.2
G0 F9000 X105.1 Y115.85
;TIME_ELAPSED:74.004933
;LAYER:5
;TYPE:WALL-INNER
;MESH:Z-SpacerSide_v2.STL
G1 F1142.2 X109.9 Y115.85 E31.45065
G1 X109.9 Y119.15 E31.56041
G1 X105.1 Y119.15 E31.72005
G1 X105.1 Y115.85 E31.82981
G0 F9000 X105.5 Y116.25
G1 F1142.2 X109.5 Y116.25 E31.96285
G1 X109.5 Y118.75 E32.046
G1 X105.5 Y118.75 E32.17904
G1 X105.5 Y116.25 E32.2622
G0 F9000 X105.9 Y116.65
G1 F1142.2 X109.1 Y116.65 E32.36863
G1 X109.1 Y118.35 E32.42517
G1 X105.9 Y118.35 E32.5316
G1 X105.9 Y116.65 E32.58814
G0 F9000 X110.172 Y115.722
G0 X124.828 Y115.722
G0 X125.1 Y115.85
G1 F1142.2 X129.9 Y115.85 E32.74779
G1 X129.9 Y119.15 E32.85755
G1 X125.1 Y119.15 E33.0172
G1 X125.1 Y115.85 E33.12696
G0 F9000 X125.5 Y116.25
G1 F1142.2 X129.5 Y116.25 E33.26
G1 X129.5 Y118.75 E33.34315
G1 X125.5 Y118.75 E33.47619
G1 X125.5 Y116.25 E33.55934
G0 F9000 X125.9 Y116.65
G1 F1142.2 X129.1 Y116.65 E33.66577
G1 X129.1 Y118.35 E33.72232
G1 X125.9 Y118.35 E33.82875
G1 X125.9 Y116.65 E33.88529
G1 F2700 E23.88529
G0 F9000 X124.87 Y119.38
G0 X124.7 Y119.55
;TYPE:WALL-OUTER
G1 F2700 E33.88529
G1 F1142.2 X124.7 Y115.55 E34.01833
G1 X110.3 Y115.55 E34.49728
G1 X110.3 Y119.55 E34.63032
G1 X104.7 Y119.55 E34.81657
G1 X104.7 Y115.55 E34.94961
G1 X97.92 Y115.55 E35.17512
G1 X97.92 Y115.45 E35.17844
G1 X137.08 Y115.45 E36.48091
G1 X137.08 Y115.55 E36.48424
G1 X130.3 Y115.55 E36.70974
G1 X130.3 Y119.55 E36.84278
G1 X124.7 Y119.55 E37.02904
G0 F9000 X124.87 Y119.38
G0 X126.315 Y118.27
;TYPE:FILL
G1 F2284.4 X126.575 Y118.09 E37.03956
G1 X126.689 Y117.608 E37.05603
G1 X125.994 Y117.126 E37.08416
G1 X125.98 Y117.067 E37.08618
G0 F9000 X127.529 Y116.73
G1 F2284.4 X126.958 Y117.126 E37.10929
G1 X126.844 Y117.608 E37.12576
G1 X127.539 Y118.09 E37.15389
G1 X127.582 Y118.27 E37.16005
G0 F9000 X128.243 Y118.27
G1 F2284.4 X128.503 Y118.09 E37.17057
G1 X128.617 Y117.608 E37.18704
G1 X127.922 Y117.126 E37.21517
G1 X127.828 Y116.73 E37.22871
G0 F9000 X129.02 Y117.033
G1 F2284.4 X128.886 Y117.126 E37.23413
G1 X128.772 Y117.608 E37.25061
G1 X129.02 Y117.78 E37.26064
G0 F9000 X124.828 Y115.722
G0 X110.172 Y115.722
G0 X109.02 Y117.388
G1 F2284.4 X108.642 Y117.126 E37.27594
G1 X108.548 Y116.73 E37.28948
G0 F9000 X108.249 Y116.73
G1 F2284.4 X107.678 Y117.126 E37.31259
G1 X107.564 Y117.608 E37.32906
G1 X108.259 Y118.09 E37.35719
